X:0065
T:The Female Hero.
M:6/8
L:1/8
Q:3/8=108
I: :: ::
% D E ^F G A B c d e ^f g
Z:Jack Campin * www.campin.me.uk * 2009
K:G
(B/c/dc) BGB|cAc BGB|(B/c/dB) BGB|ABG FED |
(B/c/dc) BGB|cAc BgB| gfe     dcB|A2d AFD:|
 BAG     GDG|BGB gdc| BAG     GDG|cAF ABc |
 BAG     GDG|BGB g2d| efg     dcB|cAF ABc:|
<end>
<start>
